static/assets/img/icons/theme/navigation/arrows-v.svg

<svg height="24" viewBox="0 0 24 24" width="24" xmlns="http://www.w3.org/2000/svg"><g fill="none" fill-rule="evenodd"><path d="m0 0h24v24h-24z" opacity="0"/><g fill="#000"><rect height="2" opacity=".3" rx="1" transform="matrix(0 -1 1 0 0 24)" width="10" x="7" y="11"/><path d="m6.70710678 8.70710678c-.39052429.39052429-1.02368927.39052429-1.41421356 0s-.39052429-1.02368927 0-1.41421356l5.99999998-6c.378579-.37857894.9881654-.39182456 1.3828314-.03004736l6 5.5c.407119.37319241.4346219 1.00575978.0614295 1.41287877s-1.0057597.43462192-1.4128787.06142951l-5.2941997-4.85301632z" fill-rule="nonzero"/><path d="m6.70710678 22.7071068c-.39052429.3905243-1.02368927.3905243-1.41421356 0s-.39052429-1.0236893 0-1.4142136l5.99999998-6c.378579-.3785789.9881654-.3918245 1.3828314-.0300473l6 5.5c.407119.3731924.4346219 1.0057597.0614295 1.4128787s-1.0057597.4346219-1.4128787.0614295l-5.2941997-4.8530163z" fill-rule="nonzero" transform="matrix(-1 0 0 -1 24.000006 37.999998)"/></g></g></svg>

<svg width="24px" height="24px" viewBox="0 0 24 24" version="1.1" xmlns="http://www.w3.org/2000/svg" xmlns:xlink="http://www.w3.org/1999/xlink">
    <title>Icon For Arrows-v</title>
    <g stroke="none" stroke-width="1" fill="none" fill-rule="evenodd">
        <polygon opacity="0" points="0 0 24 0 24 24 0 24"></polygon>
        <rect fill="#000000" opacity="0.3" transform="translate(12.000000, 12.000000) rotate(-90.000000) translate(-12.000000, -12.000000) " x="7" y="11" width="10" height="2" rx="1"></rect>
        <path d="M6.70710678,8.70710678 C6.31658249,9.09763107 5.68341751,9.09763107 5.29289322,8.70710678 C4.90236893,8.31658249 4.90236893,7.68341751 5.29289322,7.29289322 L11.2928932,1.29289322 C11.6714722,0.914314282 12.2810586,0.90106866 12.6757246,1.26284586 L18.6757246,6.76284586 C19.0828436,7.13603827 19.1103465,7.76860564 18.7371541,8.17572463 C18.3639617,8.58284362 17.7313944,8.61034655 17.3242754,8.23715414 L12.0300757,3.38413782 L6.70710678,8.70710678 Z" fill="#000000" fill-rule="nonzero"></path>
        <path d="M6.70710678,22.7071068 C6.31658249,23.0976311 5.68341751,23.0976311 5.29289322,22.7071068 C4.90236893,22.3165825 4.90236893,21.6834175 5.29289322,21.2928932 L11.2928932,15.2928932 C11.6714722,14.9143143 12.2810586,14.9010687 12.6757246,15.2628459 L18.6757246,20.7628459 C19.0828436,21.1360383 19.1103465,21.7686056 18.7371541,22.1757246 C18.3639617,22.5828436 17.7313944,22.6103465 17.3242754,22.2371541 L12.0300757,17.3841378 L6.70710678,22.7071068 Z" fill="#000000" fill-rule="nonzero" transform="translate(12.000003, 18.999999) rotate(-180.000000) translate(-12.000003, -18.999999) "></path>
    </g>
</svg>
